X: 9870
T: Dermot Grogan's
R: jig
M: 6/8
K: Edorian
|:d|~e3 dBA|~g3 agf|efe dBA|BAB GED|
~e3 dBA|g2b agf|efe dBA|Bed e2:|
|:d|egb egb|egb baf|dfa dfa|dfa afd|
~g3 ~a3|bag fga|bge dBA|Bed e2:|

